X:1
T:Sandys, SM
T:Sandys, SM
T:Sandys’ Collection, 1833
T:Public Domain Courtesy of the Cyber Hymnal™
C:Sandys’ Collection, 1833
Z:Public Domain
Z:Courtesy of the Cyber Hymnal™
%%score ( 1 2 ) ( 3 4 )
L:1/8
Q:1/4=115
M:4/4
K:D
V:1 treble 
V:2 treble 
V:3 bass 
V:4 bass 
V:1
 [FA]2 | [FA]2 [Dd]2 [Ec]2 (AB) | [Ec]6 [Ee]2 | [^Gd]2 [Ac]2 (dc) [GB]2 | A6 [EA]2 | %5
 [DA]2 D2 (Bc) [Dd]2 | A3 z B !fermata![EA]2 [CG]2 | [DF]2 [Dd]2 [DF]2 [CE]2 x | D6 |] %9
V:2
 x2 | x6 F2 | x8 | x4 F2 x2 | A6 x2 | x2 D2 D2 x2 | E2 E2 x5 | x9 | D6 |] %9
V:3
 [D,A,]2 | [D,A,]2 [F,A,]2 A,2 [D,A,]2 | [A,,A,]6 [C,A,]2 | [B,,D]2 [A,,E]2 [B,,B,]2 [E,B,]2 | %4
 [A,,C]6 [G,C]2 | [F,D]2 [F,A,]2 [G,B,]2 [F,A,]2 | [C,A,]2 [B,,D]2 !fermata![B,,A,]2 [A,,A,]2 x | %7
 [D,A,]2 A,2 A,3 z G, | [D,F,]6 |] %9
V:4
 x2 | x4 A,2 x2 | x8 | x8 | x8 | x8 | x9 | x2 (F,G,) A,2 A,,2 x | x6 |] %9

